assets/images/NGO.svg

<svg fill="none" height="75" viewBox="0 0 84 75" width="84" xmlns="http://www.w3.org/2000/svg"><g fill="#ff5107"><path d="m26.9107 33.0175h7.0859v7.0113h-7.0859z"/><path d="m50.3582 33.0175h7.086v7.0113h-7.086z"/><path d="m36.58 37.2778h11.1948v7.0113h-11.1948z"/><path d="m27.9871 60.2836h-7.1664v14.6981h7.1664z"/><path d="m63.1396 60.3019h-7.0898v14.6981h7.0898z"/><path d="m20.8207 6.6035h-13.77831v13.633h-7.04239v13.4201 13.002h7.04239l.00057 13.6438 13.77774-.0188v-7.0112h-7.0859v-26.0246h7.1664v-7.0296h-7.1044v-7.0295h7.1044v7.0295l17.5988.0107v7.0113h7.086v-7.0113l17.5536.0076v-7.0295h7.1044v7.0295h-7.1044v7.0296l7.0897-.0183v26.0246h-7.0897v7.0295l13.7788.0005-.0006-13.6438h7.0822v-12.789-13.6331h-7.0822v-13.633h-13.7782v-6.6035h-42.3189z"/></g></svg>

<svg width="84" height="75" viewBox="0 0 84 75" fill="none" xmlns="http://www.w3.org/2000/svg">
<path d="M26.9107 33.0175H33.9966V40.0288H26.9107V33.0175Z" fill="#FF5107"/>
<path d="M50.3582 33.0175H57.4442V40.0288H50.3582V33.0175Z" fill="#FF5107"/>
<path d="M36.58 37.2778H47.7748V44.2891H36.58V37.2778Z" fill="#FF5107"/>
<path d="M27.9871 60.2836H20.8207V74.9817H27.9871V60.2836Z" fill="#FF5107"/>
<path d="M63.1396 60.3019H56.0498V75H63.1396V60.3019Z" fill="#FF5107"/>
<path d="M20.8207 6.6035H7.04239V20.2365H0V33.6566V46.6586H7.04239L7.04296 60.3024L20.8207 60.2836V53.2724H13.7348V27.2478H20.9012V20.2182H13.7968V13.1887H20.9012V20.2182L38.5 20.2289V27.2402H45.586V20.2289L63.1396 20.2365V13.207H70.244V20.2365H63.1396V27.2661L70.2293 27.2478V53.2724H63.1396V60.3019L76.9184 60.3024L76.9178 46.6586H84V33.8696V20.2365H76.9178V6.6035H63.1396V0H20.8207V6.6035Z" fill="#FF5107"/>
</svg>
